MB/img/svg/svg_1.svg

<svg width="45" height="45" viewBox="0 0 45 45" fill="none" xmlns="http://www.w3.org/2000/svg">
<path d="M41.7157 33.7995C42.1312 33.7974 42.4688 34.1339 42.4688 34.5495V41.2032C42.4688 43.2742 40.7898 44.9532 38.7188 44.9532H3.75C1.67897 44.9532 0 43.2742 0 41.2032V13.2657C0 11.1947 1.67897 9.51569 3.75 9.51569H38.7188C40.7898 9.51569 42.4688 11.1947 42.4688 13.2657V19.922C42.4688 20.3374 42.1317 20.6737 41.7163 20.672C40.9361 20.6688 39.1517 20.6719 34.7821 20.6719C32.2968 20.6719 30.2812 22.6866 30.2812 25.1719V29.297C30.2812 31.7822 32.2961 33.7969 34.7814 33.7969C39.216 33.7969 40.9517 33.8032 41.7157 33.7995ZM45 25.1719V29.2969C45 30.9553 43.6496 32.2969 42.0019 32.2969H34.7812C33.1275 32.2969 31.7812 30.9516 31.7812 29.2969V25.1719C31.7812 23.5172 33.1275 22.1719 34.7812 22.1719H42C43.6538 22.1719 45 23.5172 45 25.1719ZM37.5938 27.2344C37.5938 26.8202 37.2579 26.4844 36.8438 26.4844H35.7188C35.3046 26.4844 34.9688 26.8202 34.9688 27.2344C34.9688 27.6486 35.3046 27.9844 35.7188 27.9844H36.8438C37.2579 27.9844 37.5938 27.6486 37.5938 27.2344ZM35.6813 4.82537L34.9822 4.6195C34.6879 4.53287 34.3702 4.63412 34.1803 4.87506C33.6109 5.59769 33.1762 6.34628 33.1041 7.20353C33.0673 7.64069 33.4134 8.01569 33.8521 8.01569H37.0541C37.5217 8.01569 37.8826 7.59119 37.7926 7.13237C37.5854 6.07684 36.8089 5.15012 35.6813 4.82537ZM31.5952 7.28706C31.6229 6.39606 31.9146 5.60247 32.3818 4.83484C32.6376 4.41475 32.4245 3.86631 31.9527 3.72747L27.1971 2.32712C26.7365 2.19147 26.2494 2.5254 26.25 3.04694V7.26569C26.25 7.67987 26.5858 8.01569 27 8.01569H30.8461C31.2519 8.01569 31.5825 7.69262 31.5952 7.28706ZM13.125 8.01569H14.1562C14.5704 8.01569 14.9062 7.67987 14.9062 7.26569V0.796936C14.9062 0.382749 14.5704 0.046936 14.1562 0.046936H13.125C12.7108 0.046936 12.375 0.382749 12.375 0.796936V7.26569C12.375 7.67987 12.7108 8.01569 13.125 8.01569ZM21.75 0.046936H17.1562C16.7421 0.046936 16.4062 0.382749 16.4062 0.796936V7.26569C16.4062 7.67987 16.7421 8.01569 17.1562 8.01569H24C24.4142 8.01569 24.75 7.67987 24.75 7.26569V3.04694C24.75 1.39225 23.4037 0.046936 21.75 0.046936ZM10.125 0.046936H9.09375C7.43691 0.046936 6.09375 1.39009 6.09375 3.04694V7.26569C6.09375 7.67987 6.42956 8.01569 6.84375 8.01569H10.125C10.5392 8.01569 10.875 7.67987 10.875 7.26569V0.796936C10.875 0.382749 10.5392 0.046936 10.125 0.046936Z" fill="#0A2D1E"/>
</svg>

<svg width="45" height="45" fill="none" xmlns="http://www.w3.org/2000/svg"><path d="M41.716 33.8a.75.75 0 01.753.75v6.653a3.75 3.75 0 01-3.75 3.75H3.75A3.75 3.75 0 010 41.203V13.266a3.75 3.75 0 013.75-3.75h34.969a3.75 3.75 0 013.75 3.75v6.656a.75.75 0 01-.753.75c-.78-.003-2.564 0-6.934 0a4.5 4.5 0 00-4.5 4.5v4.125a4.5 4.5 0 004.5 4.5c4.434 0 6.17.006 6.934.003zM45 25.172v4.125c0 1.658-1.35 3-2.998 3h-7.22c-1.654 0-3-1.345-3-3v-4.125c0-1.655 1.345-3 3-3H42c1.654 0 3 1.345 3 3zm-7.406 2.062a.75.75 0 00-.75-.75h-1.125a.75.75 0 000 1.5h1.125a.75.75 0 00.75-.75zM35.68 4.825l-.699-.205a.751.751 0 00-.802.255c-.57.723-1.004 1.471-1.076 2.329a.75.75 0 00.748.812h3.202a.747.747 0 00.739-.884 3 3 0 00-2.112-2.307zm-4.086 2.462c.028-.89.32-1.685.787-2.452a.749.749 0 00-.43-1.108l-4.755-1.4a.738.738 0 00-.947.72v4.219c0 .414.336.75.75.75h3.846a.75.75 0 00.75-.729zm-18.47.729h1.031a.75.75 0 00.75-.75V.796a.75.75 0 00-.75-.75h-1.031a.75.75 0 00-.75.75v6.47c0 .414.336.75.75.75zM21.75.046h-4.594a.75.75 0 00-.75.75v6.47c0 .414.336.75.75.75H24a.75.75 0 00.75-.75v-4.22c0-1.654-1.346-3-3-3zm-11.625 0H9.094a3 3 0 00-3 3v4.22c0 .414.336.75.75.75h3.281a.75.75 0 00.75-.75V.796a.75.75 0 00-.75-.75z" fill="#0A2D1E"/></svg>
